contributed-vectors/quiz_house.svg

<svg xmlns="http://www.w3.org/2000/svg" xml:space="preserve" style="fill-rule:evenodd;clip-rule:evenodd;stroke-linejoin:round;stroke-miterlimit:2" viewBox="0 0 192 192"><path d="M164.5 21.5c0-5.519-4.481-10-10-10h-133c-5.519 0-10 4.481-10 10v133c0 5.519 4.481 10 10 10h133c5.519 0 10-4.481 10-10v-133Z" style="fill:#f9de81" transform="translate(8 8)"/><path d="M96 40.922c30.398 0 55.078 24.68 55.078 55.078 0 30.398-24.68 55.078-55.078 55.078-30.398 0-55.078-24.68-55.078-55.078 0-30.398 24.68-55.078 55.078-55.078Zm0 9.159c25.343 0 45.919 20.576 45.919 45.919 0 25.343-20.576 45.919-45.919 45.919-25.343 0-45.919-20.576-45.919-45.919 0-25.343 20.576-45.919 45.919-45.919Z" style="fill:#ebebeb" transform="matrix(.65362 0 0 .65362 33.252 33.135)"/><path d="M66.136 141.899c0-3.244-3.1-5.877-6.919-5.877H42.91c-3.819 0-6.919 2.633-6.919 5.877v.75c0 3.244 3.1 5.877 6.919 5.877h16.307c3.819 0 6.919-2.633 6.919-5.877v-.75Z" style="fill:#ebebeb" transform="rotate(-45 88.482 59.647) scale(.5552 .65362)"/><path d="M72.34 61.25v34.186l47.569 47.568 17.093-17.093L72.34 61.25Zm8.614 20.795 48.337 48.336-4.912 4.912-43.425-43.425v-9.823Z" style="fill:#ebebeb" transform="matrix(-.65362 0 0 .65362 158.607 33.135)"/><path d="M66.136 141.899c0-3.244-3.1-5.877-6.919-5.877H42.91c-3.819 0-6.919 2.633-6.919 5.877v.75c0 3.244 3.1 5.877 6.919 5.877h16.307c3.819 0 6.919-2.633 6.919-5.877v-.75Z" style="fill:#83868c" transform="rotate(-135 120.707 -3.114) scale(.5552 -.65362)"/><path d="M72.34 61.25v34.186l47.569 47.568 17.093-17.093L72.34 61.25Zm8.614 20.795 48.337 48.336-4.912 4.912-43.425-43.425v-9.823Z" style="fill:#83868c" transform="matrix(.65362 0 0 .65362 33.393 33.135)"/><path d="M151.078 96c0 30.398-24.68 55.078-55.078 55.078v-9.159c25.343 0 45.919-20.576 45.919-45.919h9.159Z" style="fill:#83868c" transform="matrix(.65362 0 0 .65362 33.252 33.135)"/></svg>

<?xml version="1.0" encoding="UTF-8" standalone="no"?>
<!DOCTYPE svg PUBLIC "-//W3C//DTD SVG 1.1//EN" "http://www.w3.org/Graphics/SVG/1.1/DTD/svg11.dtd">
<svg width="100%" height="100%" viewBox="0 0 192 192" version="1.1" xmlns="http://www.w3.org/2000/svg" xmlns:xlink="http://www.w3.org/1999/xlink" xml:space="preserve" xmlns:serif="http://www.serif.com/" style="fill-rule:evenodd;clip-rule:evenodd;stroke-linejoin:round;stroke-miterlimit:2;">
    <g transform="matrix(1,0,0,1,8,8)">
        <path d="M164.5,21.5C164.5,15.981 160.019,11.5 154.5,11.5L21.5,11.5C15.981,11.5 11.5,15.981 11.5,21.5L11.5,154.5C11.5,160.019 15.981,164.5 21.5,164.5L154.5,164.5C160.019,164.5 164.5,160.019 164.5,154.5L164.5,21.5Z" style="fill:rgb(249,222,129);"/>
    </g>
    <g transform="matrix(0.653624,0,0,0.653624,33.2521,33.1346)">
        <g id="Layer1">
            <g>
                <path d="M96,40.922C126.398,40.922 151.078,65.602 151.078,96C151.078,126.398 126.398,151.078 96,151.078C65.602,151.078 40.922,126.398 40.922,96C40.922,65.602 65.602,40.922 96,40.922ZM96,50.081C121.343,50.081 141.919,70.657 141.919,96C141.919,121.343 121.343,141.919 96,141.919C70.657,141.919 50.081,121.343 50.081,96C50.081,70.657 70.657,50.081 96,50.081Z" style="fill:rgb(235,235,235);"/>
                <g>
                    <g>
                        <g transform="matrix(0.600625,-0.600625,0.707107,0.707107,-75.751,71.7564)">
                            <path d="M66.136,141.899C66.136,138.655 63.036,136.022 59.217,136.022L42.91,136.022C39.091,136.022 35.991,138.655 35.991,141.899L35.991,142.649C35.991,145.893 39.091,148.526 42.91,148.526L59.217,148.526C63.036,148.526 66.136,145.893 66.136,142.649L66.136,141.899Z" style="fill:rgb(235,235,235);"/>
                        </g>
                        <g transform="matrix(-1,0,0,1,191.785,0)">
                            <path d="M72.34,61.25L72.34,95.436L119.909,143.004L137.002,125.911L72.34,61.25ZM80.954,82.045L129.291,130.381C129.291,130.381 124.379,135.293 124.379,135.293L80.954,91.868L80.954,82.045Z" style="fill:rgb(235,235,235);"/>
                        </g>
                    </g>
                    <g transform="matrix(-1,0,0,1,192,0)">
                        <g transform="matrix(0.600625,-0.600625,0.707107,0.707107,-75.751,71.7564)">
                            <path d="M66.136,141.899C66.136,138.655 63.036,136.022 59.217,136.022L42.91,136.022C39.091,136.022 35.991,138.655 35.991,141.899L35.991,142.649C35.991,145.893 39.091,148.526 42.91,148.526L59.217,148.526C63.036,148.526 66.136,145.893 66.136,142.649L66.136,141.899Z" style="fill:rgb(131,134,140);"/>
                        </g>
                        <g transform="matrix(-1,0,0,1,191.785,0)">
                            <path d="M72.34,61.25L72.34,95.436L119.909,143.004L137.002,125.911L72.34,61.25ZM80.954,82.045L129.291,130.381C129.291,130.381 124.379,135.293 124.379,135.293L80.954,91.868L80.954,82.045Z" style="fill:rgb(131,134,140);"/>
                        </g>
                    </g>
                </g>
                <path d="M151.078,96C151.078,126.398 126.398,151.078 96,151.078L96,141.919C121.343,141.919 141.919,121.343 141.919,96L151.078,96Z" style="fill:rgb(131,134,140);"/>
            </g>
        </g>
    </g>
</svg>
